X:662
T:
N:
S:Från Gotlands fornsal.
R:kadrilj
O:Gotland
M:2/4
L:1/16
K:C
G2|c2cB cdef|^fgag g2eg|fdBG ^FGAB|cdec G2G2|c2cB cdef|^fgag g2eg|fdBG
^FGAB|d4 c2::G2|d^cde d2d2|cBAG ^FGAG|g^fga g2g2|g^fag =fedc|d^cde d2d2|cBAG
^FGAB|c2ce dcde|c2e2c2:|
K:F
|AB|c2de f2AB|c2de f2fg|a2ab g2ga|f2af c2AB|c2de f2AB|c2de f2fg|a2ab g2ga|g4
f2::f2|e2ef g2fe|f2fg a2gf|bgec =Bcde|f2cA F2 AB|c2de f2AB|c2de f2fg|a2ab
g2ga|g4 f2:|

